public/logos/JS.svg

<?xml version="1.0" encoding="UTF-8"?>
<svg xmlns="http://www.w3.org/2000/svg" xmlns:xlink="http://www.w3.org/1999/xlink" width="176pt" height="40.99pt" viewBox="0 0 176 40.99" version="1.1">
<defs>
<clipPath id="clip1">
  <path d="M 0 0 L 74 0 L 74 40.988281 L 0 40.988281 Z M 0 0 "/>
</clipPath>
</defs>
<g id="surface1">
<path style=" stroke:none;fill-rule:nonzero;fill:rgb(24.737549%,41.433716%,52.488708%);fill-opacity:1;" d="M 83.527344 21.46875 L 83.101562 17.707031 C 83.035156 16.902344 82.945312 15.738281 82.878906 14.847656 L 82.835938 14.847656 C 82.429688 15.738281 82.027344 16.8125 81.601562 17.707031 L 79.769531 21.46875 Z M 78.941406 23.480469 L 76.882812 27.773438 L 74.109375 27.773438 L 81.667969 12.699219 L 84.933594 12.699219 L 86.839844 27.773438 L 84.109375 27.773438 L 83.683594 23.480469 L 78.941406 23.480469 "/>
<path style=" stroke:none;fill-rule:nonzero;fill:rgb(24.737549%,41.433716%,52.488708%);fill-opacity:1;" d="M 94.039062 12.699219 L 91.175781 27.773438 L 88.558594 27.773438 L 91.421875 12.699219 L 94.039062 12.699219 "/>
<path style=" stroke:none;fill-rule:nonzero;fill:rgb(24.737549%,41.433716%,52.488708%);fill-opacity:1;" d="M 98.488281 19.566406 L 99.96875 19.566406 C 102.003906 19.566406 103.367188 18.3125 103.367188 16.679688 C 103.367188 15.292969 102.269531 14.667969 100.796875 14.667969 C 100.144531 14.667969 99.71875 14.710938 99.40625 14.800781 Z M 97.171875 12.945312 C 98.132812 12.722656 99.542969 12.585938 100.886719 12.585938 C 102.339844 12.585938 103.726562 12.875 104.664062 13.570312 C 105.515625 14.152344 106.097656 15.070312 106.097656 16.300781 C 106.097656 18.515625 104.53125 20.035156 102.605469 20.617188 L 102.585938 20.683594 C 103.566406 21.0625 103.992188 22.117188 104.128906 23.546875 C 104.308594 25.425781 104.417969 27.171875 104.664062 27.773438 L 101.980469 27.773438 C 101.867188 27.417969 101.714844 25.984375 101.578125 24.171875 C 101.46875 22.25 100.773438 21.554688 99.386719 21.554688 L 98.109375 21.554688 L 96.925781 27.773438 L 94.351562 27.773438 L 97.171875 12.945312 "/>
<path style=" stroke:none;fill-rule:nonzero;fill:rgb(24.737549%,41.433716%,52.488708%);fill-opacity:1;" d="M 113.726562 12.699219 L 116.296875 12.699219 L 114.976562 19.699219 L 115.066406 19.699219 C 115.535156 19.050781 116.027344 18.515625 116.476562 17.976562 L 121.175781 12.699219 L 124.414062 12.699219 L 118.199219 19.207031 L 121.867188 27.773438 L 119.023438 27.773438 L 116.160156 20.839844 L 114.464844 22.429688 L 113.433594 27.773438 L 110.859375 27.773438 L 113.726562 12.699219 "/>
<path style=" stroke:none;fill-rule:nonzero;fill:rgb(24.737549%,41.433716%,52.488708%);fill-opacity:1;" d="M 127.929688 15.941406 C 126.609375 17.261719 125.851562 19.722656 125.851562 21.667969 C 125.851562 23.949219 126.878906 25.828125 129.40625 25.828125 C 130.503906 25.828125 131.554688 25.359375 132.335938 24.554688 C 133.632812 23.257812 134.371094 20.683594 134.371094 18.78125 C 134.371094 16.792969 133.679688 14.644531 130.902344 14.644531 C 129.738281 14.644531 128.734375 15.136719 127.929688 15.941406 Z M 137.144531 18.691406 C 137.144531 21.378906 136.183594 24.152344 134.414062 25.894531 C 133.050781 27.238281 131.21875 28.019531 129.023438 28.019531 C 125.132812 28.019531 123.097656 25.179688 123.097656 21.800781 C 123.097656 19.117188 124.105469 16.300781 125.914062 14.554688 C 127.28125 13.234375 129.183594 12.453125 131.21875 12.453125 C 135.242188 12.453125 137.144531 15.246094 137.144531 18.691406 "/>
<path style=" stroke:none;fill-rule:nonzero;fill:rgb(24.737549%,41.433716%,52.488708%);fill-opacity:1;" d="M 142.109375 19.566406 L 143.589844 19.566406 C 145.621094 19.566406 146.984375 18.3125 146.984375 16.679688 C 146.984375 15.292969 145.890625 14.667969 144.414062 14.667969 C 143.765625 14.667969 143.34375 14.710938 143.027344 14.800781 Z M 140.789062 12.945312 C 141.753906 12.722656 143.160156 12.585938 144.503906 12.585938 C 145.960938 12.585938 147.347656 12.875 148.285156 13.570312 C 149.136719 14.152344 149.71875 15.070312 149.71875 16.300781 C 149.71875 18.515625 148.148438 20.035156 146.226562 20.617188 L 146.203125 20.683594 C 147.1875 21.0625 147.613281 22.117188 147.746094 23.546875 C 147.929688 25.425781 148.039062 27.171875 148.285156 27.773438 L 145.601562 27.773438 C 145.488281 27.417969 145.332031 25.984375 145.195312 24.171875 C 145.085938 22.25 144.394531 21.554688 143.007812 21.554688 L 141.730469 21.554688 L 140.546875 27.773438 L 137.972656 27.773438 L 140.789062 12.945312 "/>
<path style=" stroke:none;fill-rule:nonzero;fill:rgb(24.737549%,41.433716%,52.488708%);fill-opacity:1;" d="M 152.914062 27.773438 L 154.101562 21.578125 L 151.171875 12.699219 L 153.941406 12.699219 L 155.128906 16.992188 C 155.464844 18.289062 155.621094 18.960938 155.757812 19.632812 L 155.800781 19.632812 C 156.203125 18.917969 156.695312 18.066406 157.367188 16.949219 L 160.074219 12.699219 L 163.160156 12.699219 L 156.695312 21.535156 L 155.511719 27.773438 L 152.914062 27.773438 "/>
<path style=" stroke:none;fill-rule:nonzero;fill:rgb(24.737549%,41.433716%,52.488708%);fill-opacity:1;" d="M 166.785156 15.941406 C 165.464844 17.261719 164.703125 19.722656 164.703125 21.667969 C 164.703125 23.949219 165.730469 25.828125 168.261719 25.828125 C 169.355469 25.828125 170.40625 25.359375 171.191406 24.554688 C 172.488281 23.257812 173.226562 20.683594 173.226562 18.78125 C 173.226562 16.792969 172.53125 14.644531 169.761719 14.644531 C 168.597656 14.644531 167.589844 15.136719 166.785156 15.941406 Z M 176 18.691406 C 176 21.378906 175.039062 24.152344 173.269531 25.894531 C 171.90625 27.238281 170.070312 28.019531 167.882812 28.019531 C 163.988281 28.019531 161.953125 25.179688 161.953125 21.800781 C 161.953125 19.117188 162.960938 16.300781 164.769531 14.554688 C 166.136719 13.234375 168.035156 12.453125 170.070312 12.453125 C 174.101562 12.453125 176 15.246094 176 18.691406 "/>
<g clip-path="url(#clip1)" clip-rule="nonzero">
<path style=" stroke:none;fill-rule:nonzero;fill:rgb(24.737549%,41.433716%,52.488708%);fill-opacity:1;" d="M 51.523438 14.1875 C 50.90625 14.484375 50.597656 15.050781 50.308594 15.617188 C 50.078125 16.070312 49.917969 16.554688 49.707031 17.074219 C 50.027344 17.375 50.339844 17.671875 50.648438 17.96875 C 51.589844 18.871094 52.582031 19.726562 53.226562 20.882812 C 53.519531 21.40625 53.820312 21.933594 54.019531 22.492188 C 54.449219 23.695312 54.839844 24.910156 55.199219 26.136719 C 55.328125 26.570312 55.535156 26.851562 55.96875 26.980469 C 56.332031 27.089844 56.683594 27.230469 57.058594 27.363281 C 57.023438 28.789062 56.542969 30 55.738281 31.097656 C 54.886719 32.261719 53.738281 33.0625 52.4375 33.613281 C 51.285156 34.101562 50.101562 34.519531 48.910156 34.886719 C 48.335938 35.066406 47.949219 35.308594 47.890625 35.933594 C 49.28125 35.996094 53.648438 34.601562 56.160156 33.191406 C 56.425781 33.457031 56.71875 33.734375 56.992188 34.027344 C 57.703125 34.796875 58.382812 35.59375 59.117188 36.339844 C 60.472656 37.722656 62.140625 38.589844 63.980469 39.128906 C 65.871094 39.683594 67.804688 39.777344 69.746094 39.511719 C 70.648438 39.390625 71.53125 39.152344 72.429688 38.988281 C 72.925781 38.898438 73.429688 38.859375 73.945312 38.792969 C 74.109375 39.339844 73.894531 39.667969 73.503906 39.867188 C 73.214844 40.015625 72.886719 40.113281 72.5625 40.164062 C 69.863281 40.597656 67.140625 40.761719 64.414062 40.898438 C 57.980469 41.226562 51.601562 40.628906 45.25 39.703125 C 42.925781 39.367188 40.628906 38.863281 38.320312 38.433594 C 36.550781 38.105469 34.804688 37.648438 33.046875 37.253906 C 30.53125 36.691406 28.023438 36.082031 25.546875 35.375 C 23.65625 34.832031 21.75 34.378906 19.835938 33.960938 C 18.816406 33.738281 17.769531 33.632812 16.738281 33.457031 C 14.597656 33.09375 12.453125 32.769531 10.328125 32.34375 C 8.429688 31.964844 6.546875 31.507812 4.675781 31.011719 C 3.347656 30.660156 2.050781 30.203125 0.746094 29.769531 C 0.109375 29.554688 0.0117188 29.367188 0 28.542969 C 0.496094 28.535156 1.003906 28.46875 1.492188 28.527344 C 2.503906 28.65625 3.507812 28.839844 4.511719 29.019531 C 5.234375 29.148438 5.960938 29.273438 6.667969 29.457031 C 7.597656 29.699219 8.398438 29.402344 9.132812 28.914062 C 10.152344 28.246094 11.171875 28.148438 12.324219 28.566406 C 14.085938 29.203125 15.789062 29.972656 17.527344 30.671875 C 19.253906 31.371094 21.003906 31.992188 22.839844 32.375 C 23.980469 32.613281 25.125 32.605469 26.273438 32.617188 C 28.113281 32.640625 29.933594 32.4375 31.726562 31.957031 C 33.617188 31.449219 35.226562 30.453125 36.667969 29.167969 C 37.691406 28.257812 38.578125 27.222656 39.238281 26.011719 C 40.109375 24.429688 40.527344 22.761719 40.195312 20.949219 C 39.980469 19.785156 39.496094 18.835938 38.402344 18.25 C 37.683594 17.867188 37 17.410156 36.292969 17 C 35.710938 16.65625 35.472656 16.175781 35.519531 15.492188 C 35.582031 14.550781 35.828125 13.695312 36.363281 12.914062 C 37.550781 11.167969 38.945312 9.628906 40.683594 8.402344 C 42.109375 7.394531 43.71875 6.859375 45.398438 6.488281 C 46.742188 6.195312 48.113281 5.984375 49.4375 5.601562 C 53.082031 4.554688 56.59375 3.183594 59.773438 1.058594 C 60.238281 0.75 60.773438 0.550781 61.269531 0.289062 C 61.410156 0.210938 61.535156 0.0976562 61.667969 0 C 61.820312 0.015625 61.972656 0.0351562 62.125 0.0507812 C 61.925781 1.003906 61.351562 1.753906 60.75 2.480469 C 60.28125 3.050781 59.792969 3.605469 59.3125 4.164062 C 58.734375 4.832031 58.375 5.605469 58.191406 6.46875 C 57.964844 7.53125 57.578125 8.519531 56.886719 9.398438 C 56.46875 9.929688 56.125 10.550781 55.875 11.183594 C 55.519531 12.085938 54.886719 12.636719 54.03125 12.996094 C 53.304688 13.304688 52.582031 13.617188 51.859375 13.9375 C 51.726562 13.996094 51.621094 14.113281 51.503906 14.203125 L 51.523438 14.1875 "/>
</g>
<path style=" stroke:none;fill-rule:nonzero;fill:rgb(24.737549%,41.433716%,52.488708%);fill-opacity:1;" d="M 51.503906 14.203125 C 51.519531 14.214844 51.539062 14.226562 51.558594 14.238281 C 51.546875 14.222656 51.535156 14.203125 51.523438 14.1875 L 51.503906 14.203125 "/>
</g>
</svg>

<svg xmlns="http://www.w3.org/2000/svg" width="176pt" height="54.653" viewBox="0 0 176 40.99"><defs><clipPath id="a"><path d="M0 0h74v40.988H0Zm0 0"/></clipPath></defs><path d="m83.527 21.469-.425-3.762c-.067-.805-.157-1.969-.223-2.86h-.043c-.406.891-.809 1.966-1.234 2.86l-1.832 3.762Zm-4.586 2.011-2.058 4.293h-2.774L81.668 12.7h3.266l1.906 15.074h-2.73l-.426-4.293zM94.04 12.7l-2.864 15.073h-2.617L91.422 12.7zM98.488 19.566h1.48c2.036 0 3.4-1.253 3.4-2.886 0-1.387-1.098-2.012-2.571-2.012-.652 0-1.078.043-1.39.133Zm-1.316-6.62c.96-.223 2.371-.36 3.715-.36 1.453 0 2.84.289 3.777.984.852.582 1.434 1.5 1.434 2.73 0 2.216-1.567 3.735-3.493 4.317l-.02.067c.981.378 1.407 1.433 1.544 2.863.18 1.879.289 3.625.535 4.226h-2.684c-.113-.355-.265-1.789-.402-3.601-.11-1.922-.805-2.617-2.191-2.617h-1.278l-1.183 6.218h-2.574zM113.727 12.7h2.57l-1.32 7h.09c.468-.65.96-1.184 1.41-1.723l4.699-5.278h3.238l-6.215 6.508 3.668 8.566h-2.844l-2.863-6.933-1.695 1.59-1.031 5.343h-2.575z" style="stroke:none;fill-rule:nonzero;fill:#3f6a86;fill-opacity:1"/><path d="M127.93 15.941c-1.32 1.32-2.078 3.782-2.078 5.727 0 2.281 1.027 4.16 3.554 4.16 1.098 0 2.149-.469 2.93-1.273 1.297-1.297 2.035-3.871 2.035-5.774 0-1.988-.691-4.136-3.469-4.136-1.164 0-2.168.492-2.972 1.296m9.215 2.75c0 2.688-.961 5.461-2.73 7.204-1.364 1.343-3.196 2.125-5.392 2.125-3.89 0-5.925-2.84-5.925-6.22 0-2.683 1.007-5.5 2.816-7.245 1.367-1.32 3.27-2.102 5.305-2.102 4.023 0 5.926 2.793 5.926 6.238M142.11 19.566h1.48c2.031 0 3.394-1.253 3.394-2.886 0-1.387-1.093-2.012-2.57-2.012-.648 0-1.07.043-1.387.133Zm-1.32-6.62c.964-.223 2.37-.36 3.714-.36 1.457 0 2.844.289 3.781.984.852.582 1.434 1.5 1.434 2.73 0 2.216-1.57 3.735-3.492 4.317l-.024.067c.984.378 1.41 1.433 1.543 2.863.184 1.879.293 3.625.54 4.226h-2.684c-.114-.355-.27-1.789-.407-3.601-.11-1.922-.8-2.617-2.187-2.617h-1.278l-1.183 6.218h-2.574zM152.914 27.773l1.188-6.195-2.93-8.879h2.77l1.187 4.293c.336 1.297.492 1.969.629 2.64h.043c.402-.714.894-1.566 1.566-2.683l2.707-4.25h3.086l-6.465 8.836-1.183 6.238zM166.785 15.941c-1.32 1.32-2.082 3.782-2.082 5.727 0 2.281 1.027 4.16 3.559 4.16 1.093 0 2.144-.469 2.93-1.273 1.296-1.297 2.035-3.871 2.035-5.774 0-1.988-.696-4.136-3.465-4.136-1.164 0-2.172.492-2.977 1.296m9.215 2.75c0 2.688-.96 5.461-2.73 7.204-1.364 1.343-3.2 2.125-5.387 2.125-3.895 0-5.93-2.84-5.93-6.22 0-2.683 1.008-5.5 2.817-7.245 1.367-1.32 3.265-2.102 5.3-2.102 4.032 0 5.93 2.793 5.93 6.238" style="stroke:none;fill-rule:nonzero;fill:#3f6a86;fill-opacity:1"/><g clip-path="url(#a)"><path d="M51.523 14.188c-.617.296-.925.863-1.214 1.43-.23.452-.391.937-.602 1.456q.48.45.941.895c.942.902 1.934 1.758 2.579 2.914.293.523.593 1.05.793 1.61.43 1.202.82 2.417 1.18 3.644.128.433.335.715.769.843.363.11.715.25 1.09.383-.036 1.426-.516 2.637-1.32 3.735-.852 1.164-2 1.965-3.301 2.515a37 37 0 0 1-3.528 1.274c-.574.18-.96.422-1.02 1.047 1.391.062 5.758-1.332 8.27-2.743.266.266.559.543.832.836.711.77 1.39 1.567 2.125 2.313 1.356 1.383 3.024 2.25 4.863 2.789 1.891.555 3.825.648 5.766.383.902-.121 1.785-.36 2.684-.524.496-.09 1-.129 1.515-.195.164.547-.05.875-.441 1.074-.29.149-.617.246-.942.297-2.699.434-5.421.598-8.148.734-6.434.329-12.812-.27-19.164-1.195-2.324-.336-4.621-.84-6.93-1.27-1.77-.328-3.515-.785-5.273-1.18-2.516-.562-5.024-1.171-7.5-1.878-1.89-.543-3.797-.996-5.711-1.414-1.02-.223-2.066-.328-3.098-.504-2.14-.363-4.285-.687-6.41-1.113a93 93 0 0 1-5.652-1.332c-1.328-.352-2.625-.809-3.93-1.242-.637-.215-.734-.403-.746-1.227.496-.008 1.004-.074 1.492-.016 1.012.13 2.016.313 3.02.493.722.128 1.449.253 2.156.437.93.242 1.73-.055 2.465-.543 1.02-.668 2.039-.766 3.191-.348 1.762.637 3.465 1.407 5.203 2.106 1.727.7 3.477 1.32 5.313 1.703 1.14.238 2.285.23 3.433.242 1.84.024 3.66-.18 5.454-.66 1.89-.508 3.5-1.504 4.941-2.789 1.023-.91 1.91-1.945 2.57-3.156.871-1.582 1.29-3.25.957-5.063-.215-1.164-.699-2.113-1.793-2.699-.718-.383-1.402-.84-2.109-1.25-.582-.344-.82-.824-.773-1.508.062-.941.308-1.797.843-2.578 1.188-1.746 2.582-3.285 4.32-4.512 1.426-1.007 3.036-1.543 4.715-1.914 1.344-.293 2.715-.504 4.04-.886 3.644-1.047 7.156-2.418 10.335-4.543.465-.309 1-.508 1.497-.77.14-.078.265-.191.398-.289q.228.026.457.05c-.2.954-.773 1.704-1.375 2.43-.469.57-.957 1.125-1.437 1.684-.579.668-.938 1.441-1.122 2.305-.226 1.062-.613 2.05-1.304 2.93a7.2 7.2 0 0 0-1.012 1.785c-.355.902-.988 1.453-1.844 1.812q-1.088.462-2.172.941c-.132.06-.238.176-.355.266z" style="stroke:none;fill-rule:nonzero;fill:#3f6a86;fill-opacity:1"/></g><path d="M51.504 14.203q.024.018.055.035l-.036-.05z" style="stroke:none;fill-rule:nonzero;fill:#3f6a86;fill-opacity:1"/></svg>
